X:1
T:I Need Thee Every Hour
T:Text: Annie S. Hawks (1835-1918); ref. Robert Lowry (1826-1899) Tune: Robert Lowry (1826-1899)
T:64 64 Refrain NEED www.hymnary.org/text/i_need_thee_every_hour_most_gracious
T:I Need Thee Every Hour
T:This hymn is in the public domain.  You may freely use this score for personal and congregational worship.  If you reproduce the score, please credit Hymnary.org as the source. 
T:This hymn is in the public domain.  You may freely use this score for personal and congregational worship.  If you reproduce the score, please credit Hymnary.org as the source. 
Z:This hymn is in the public domain.  You may freely use this score for personal and congregational worship.  If you reproduce the score, please credit Hymnary.org as the source.
%%score ( 1 2 ) ( 3 4 )
L:1/8
M:3/4
K:G
V:1 treble nm="Piano" snm="Pno."
V:2 treble 
V:3 bass nm="Piano" snm="Pno."
V:4 bass 
V:1
 [B,G]2 | [DB]3 [CA] [B,G][A,F] | [B,G]4 [B,G]2 | (G3 A) (GE) | [B,D]4 | D2 | [DA]3 [DB] AD | %7
w: 3~I|need thee ev- ery|hour; in|joy _ or _|pain;|come|quick- ly, and a-|
w: 1~I|need thee ev- ery|hour, most|gra- * cious _|Lord;|no|ten- der voice like|
w: 2~I|need thee ev- ery|hour; stay|thou _ near _|by;|temp-|ta- tions lose their|
 [DB]4 [DG]2 | (F3 G) (FE) | D4 ||"^Refrain" [DB]2 | [DB]3 [DG] [Gc][GB] | [GB]2 [FA]4 | %13
w: bide, or|life _ is _|vain.|I|need thee, O I|need thee;|
w: thine can|peace _ af- *|ford.||||
w: power when|thou _ art _|nigh.||||
 [FA]3 [EG] [FB][FA] | [DA]2 [DG]2 | [DG]2 | [EG]3 [EA] [EG][CE] | [B,D]2 [DG]2 [EA]2 | %18
w: ev- ery hour I|need thee!|O|bless me now, my|Sa- vior, I|
w: |||||
w: |||||
 (([DB]3 [B,G])) [CA]2 | [B,G]4 |] %20
w: come _ to|thee.|
w: ||
w: ||
V:2
 x2 | x6 | x6 | C4 C2 | x4 | D2 | x4 DD | x6 | D4 ^C2 | D4 || x2 | x6 | x6 | x6 | x4 | x2 | x6 | %17
 x6 | x6 | x4 |] %20
V:3
 [G,,D,]2 | [G,,G,]3 [C,E,] D,D, | [G,,D,]4 [G,,D,]2 | [C,E,]4 (E,G,) | [G,,G,]4 | [B,,G,]2 | %6
 [D,F,]3 [D,G,] [D,F,][D,F,] | G,4 [G,,B,]2 | (A,3 B,) (A,G,) | [D,F,]4 || G,2 | %11
 G,3 [G,B,] [G,E][G,D] | [D,D]2 [D,D]4 | [D,C]3 [D,B,] [D,D][D,C] | [G,,C]2 [G,,B,]2 | [B,,G,]2 | %16
 [C,G,]3 [C,G,] [C,G,][C,G,] | [G,,G,]2 [B,,G,]2 [C,G,]2 | [D,G,]4 [D,F,]2 | [G,,G,]4 |] %20
V:4
 x2 | x4 D,D, | x6 | x4 C,2 | x4 | x2 | x6 | G,4 x2 | A,,4 A,,2 | x4 || G,2 | G,3 x x2 | x6 | x6 | %14
 x4 | x2 | x6 | x6 | x6 | x4 |] %20

